img/dash-spacing-do.svg

<svg width="180" height="109" xmlns="http://www.w3.org/2000/svg"><g fill="none" fill-rule="evenodd"><path d="M2.404 105V92.994H7.75c2.088 0 3.366 1.26 3.366 3.06 0 1.512-1.008 2.52-2.106 2.754 1.278.198 2.34 1.512 2.34 2.952 0 1.926-1.278 3.24-3.474 3.24H2.404zm1.494-6.804h3.6c1.35 0 2.07-.828 2.07-1.926 0-1.08-.72-1.944-2.07-1.944h-3.6v3.87zm0 5.472H7.57c1.404 0 2.232-.792 2.232-2.07 0-1.098-.756-2.07-2.232-2.07H3.898v4.14zm13.572 1.548c-2.646 0-4.302-2.052-4.302-4.572s1.656-4.554 4.302-4.554 4.302 2.034 4.302 4.554c0 2.52-1.656 4.572-4.302 4.572zm0-1.206c1.854 0 2.88-1.584 2.88-3.366 0-1.764-1.026-3.348-2.88-3.348-1.854 0-2.898 1.584-2.898 3.348 0 1.782 1.044 3.366 2.898 3.366zm12.798.99v-1.296c-.648.882-1.71 1.512-2.934 1.512-2.268 0-3.87-1.728-3.87-4.554 0-2.772 1.584-4.572 3.87-4.572 1.17 0 2.232.576 2.934 1.53v-4.626h1.35V105h-1.35zm0-2.358V98.7c-.486-.756-1.53-1.404-2.61-1.404-1.746 0-2.79 1.44-2.79 3.366 0 1.926 1.044 3.348 2.79 3.348 1.08 0 2.124-.612 2.61-1.368zm3.78 4.536l-.216 1.224c.252.072.702.126.99.126 1.152-.018 2.034-.504 2.556-1.764l4.356-10.458h-1.476l-2.88 7.128-2.898-7.128h-1.458l3.636 8.784-.576 1.314c-.306.72-.702.918-1.296.918a2.07 2.07 0 01-.738-.144zM50.806 105H52.3V94.326h3.816v-1.332h-9.108v1.332h3.798V105zm6.732-4.356c0-2.52 1.8-4.554 4.284-4.554 2.628 0 4.176 2.052 4.176 4.662v.342H58.96c.108 1.638 1.26 3.006 3.132 3.006.99 0 1.998-.396 2.682-1.098l.648.882c-.864.864-2.034 1.332-3.456 1.332-2.574 0-4.428-1.854-4.428-4.572zm4.266-3.438c-1.854 0-2.772 1.566-2.844 2.898h5.706c-.018-1.296-.882-2.898-2.862-2.898zM73.81 105h1.566l-3.348-4.464 3.15-4.23h-1.566L71.2 99.618l-2.412-3.312h-1.566l3.15 4.23-3.33 4.464h1.548l2.61-3.564L73.81 105zm5.31.216c.792 0 1.278-.234 1.62-.558l-.396-1.008c-.18.198-.54.36-.918.36-.594 0-.882-.468-.882-1.116v-5.4h1.764v-1.188h-1.764V93.93h-1.35v2.376h-1.44v1.188h1.44v5.688c0 1.296.648 2.034 1.926 2.034zM1.416 3.064h6.816V23h2.432V3.064h6.752V.856h-16v2.208zM20.136 23h2.4V7h-2.4v16zm0-19.616h2.4V.6h-2.4v2.784zM35.432 9.08V7h-5.088V2.104h-2.368V7h-2.272v2.08h2.272v8.416c0 4.608 1.12 5.856 4.416 5.856 1.12 0 3.264-.352 3.264-.352l-.16-1.984s-1.952.192-2.848.192c-2.08 0-2.304-.992-2.304-4.48V9.08h5.088zM38.568 23h2.4V.024h-2.4V23zm13.12-1.792c2.4 0 5.888-.288 5.888-.288l.064 1.888s-3.648.512-6.24.512c-4.768 0-6.336-2.784-6.336-8.224 0-6.08 2.624-8.416 6.688-8.416 4.256 0 6.432 2.24 6.432 7.488l-.128 1.824h-10.56c0 3.424 1.056 5.216 4.192 5.216zm-4.224-7.136h8.32c0-3.968-1.216-5.376-4.032-5.376-2.72 0-4.256 1.504-4.288 5.376z" fill="#071D49"/><path d="M1 45h29" stroke="#C8102E" stroke-width="2" stroke-linecap="square"/><path fill="#43CEBD" opacity=".05" d="M0 24h134v20H0z"/><path d="M144.864 38h7.328v-1.184h-5.232c2.976-2.352 5.184-4.336 5.184-6.512 0-2.128-1.808-3.136-3.584-3.136-1.504 0-2.896.608-3.712 1.68l.816.848c.624-.8 1.616-1.344 2.896-1.344 1.104 0 2.224.592 2.224 1.952 0 1.84-2.08 3.616-5.92 6.64V38zm9.36-5.328c0-2.608 1.152-5.504 4.08-5.504 2.912 0 4.08 2.896 4.08 5.504 0 2.592-1.168 5.52-4.08 5.52-2.928 0-4.08-2.928-4.08-5.52zm6.8 0c0-2.128-.688-4.32-2.72-4.32s-2.72 2.192-2.72 4.32.688 4.336 2.72 4.336 2.72-2.208 2.72-4.336zm4.576 8.272h-1.2V30.272h1.2v1.152a3.23 3.23 0 012.608-1.344c2.032 0 3.44 1.536 3.44 4.048 0 2.496-1.408 4.064-3.44 4.064-1.056 0-1.984-.496-2.608-1.36v4.112zm4.784-6.816c0-1.712-.928-2.976-2.48-2.976-.944 0-1.888.56-2.304 1.232v3.488c.416.672 1.36 1.248 2.304 1.248 1.552 0 2.48-1.28 2.48-2.992zM178.592 38h1.392l-2.976-3.968 2.8-3.76h-1.392l-2.144 2.944-2.144-2.944h-1.392l2.8 3.76-2.96 3.968h1.376l2.32-3.168 2.32 3.168z" fill="#43CEBD"/><path fill="#43CEBD" opacity=".05" d="M0 46h134v40H0z"/><path d="M149.584 70v-2.704h-5.072v-1.104l4.576-6.864h1.824v6.8h1.504v1.168h-1.504V70h-1.328zm0-9.44l-3.744 5.568h3.744V60.56zm4.16 4.112c0-2.608 1.152-5.504 4.08-5.504 2.912 0 4.08 2.896 4.08 5.504 0 2.592-1.168 5.52-4.08 5.52-2.928 0-4.08-2.928-4.08-5.52zm6.8 0c0-2.128-.688-4.32-2.72-4.32s-2.72 2.192-2.72 4.32.688 4.336 2.72 4.336 2.72-2.208 2.72-4.336zm4.576 8.272h-1.2V62.272h1.2v1.152a3.23 3.23 0 012.608-1.344c2.032 0 3.44 1.536 3.44 4.048 0 2.496-1.408 4.064-3.44 4.064-1.056 0-1.984-.496-2.608-1.36v4.112zm4.784-6.816c0-1.712-.928-2.976-2.48-2.976-.944 0-1.888.56-2.304 1.232v3.488c.416.672 1.36 1.248 2.304 1.248 1.552 0 2.48-1.28 2.48-2.992zM178.112 70h1.392l-2.976-3.968 2.8-3.76h-1.392l-2.144 2.944-2.144-2.944h-1.392l2.8 3.76-2.96 3.968h1.376l2.32-3.168 2.32 3.168z" fill="#43CEBD"/></g></svg>

<?xml version="1.0" encoding="UTF-8"?>
<svg width="180px" height="109px" viewBox="0 0 180 109" version="1.1" xmlns="http://www.w3.org/2000/svg" xmlns:xlink="http://www.w3.org/1999/xlink">
    <!-- Generator: Sketch 45.1 (43504) - http://www.bohemiancoding.com/sketch -->
    <title>Group 13</title>
    <desc>Created with Sketch.</desc>
    <defs></defs>
    <g id="Page-1" stroke="none" stroke-width="1" fill="none" fill-rule="evenodd">
        <g id="7-12-4" transform="translate(-345.000000, -3535.000000)">
            <g id="dash-do" transform="translate(249.000000, 3471.000000)">
                <g id="Group-13" transform="translate(96.000000, 64.000000)">
                    <g id="Dash-/-Do">
                        <path d="M2.404,105 L2.404,92.994 L7.75,92.994 C9.838,92.994 11.116,94.254 11.116,96.054 C11.116,97.566 10.108,98.574 9.01,98.808 C10.288,99.006 11.35,100.32 11.35,101.76 C11.35,103.686 10.072,105 7.876,105 L2.404,105 Z M3.898,98.196 L7.498,98.196 C8.848,98.196 9.568,97.368 9.568,96.27 C9.568,95.19 8.848,94.326 7.498,94.326 L3.898,94.326 L3.898,98.196 Z M3.898,103.668 L7.57,103.668 C8.974,103.668 9.802,102.876 9.802,101.598 C9.802,100.5 9.046,99.528 7.57,99.528 L3.898,99.528 L3.898,103.668 Z M17.47,105.216 C14.824,105.216 13.168,103.164 13.168,100.644 C13.168,98.124 14.824,96.09 17.47,96.09 C20.116,96.09 21.772,98.124 21.772,100.644 C21.772,103.164 20.116,105.216 17.47,105.216 Z M17.47,104.01 C19.324,104.01 20.35,102.426 20.35,100.644 C20.35,98.88 19.324,97.296 17.47,97.296 C15.616,97.296 14.572,98.88 14.572,100.644 C14.572,102.426 15.616,104.01 17.47,104.01 Z M30.268,105 L30.268,103.704 C29.62,104.586 28.558,105.216 27.334,105.216 C25.066,105.216 23.464,103.488 23.464,100.662 C23.464,97.89 25.048,96.09 27.334,96.09 C28.504,96.09 29.566,96.666 30.268,97.62 L30.268,92.994 L31.618,92.994 L31.618,105 L30.268,105 Z M30.268,102.642 L30.268,98.7 C29.782,97.944 28.738,97.296 27.658,97.296 C25.912,97.296 24.868,98.736 24.868,100.662 C24.868,102.588 25.912,104.01 27.658,104.01 C28.738,104.01 29.782,103.398 30.268,102.642 Z M34.048,107.178 L33.832,108.402 C34.084,108.474 34.534,108.528 34.822,108.528 C35.974,108.51 36.856,108.024 37.378,106.764 L41.734,96.306 L40.258,96.306 L37.378,103.434 L34.48,96.306 L33.022,96.306 L36.658,105.09 L36.082,106.404 C35.776,107.124 35.38,107.322 34.786,107.322 C34.57,107.322 34.246,107.268 34.048,107.178 Z M50.806,105 L52.3,105 L52.3,94.326 L56.116,94.326 L56.116,92.994 L47.008,92.994 L47.008,94.326 L50.806,94.326 L50.806,105 Z M57.538,100.644 C57.538,98.124 59.338,96.09 61.822,96.09 C64.45,96.09 65.998,98.142 65.998,100.752 L65.998,101.094 L58.96,101.094 C59.068,102.732 60.22,104.1 62.092,104.1 C63.082,104.1 64.09,103.704 64.774,103.002 L65.422,103.884 C64.558,104.748 63.388,105.216 61.966,105.216 C59.392,105.216 57.538,103.362 57.538,100.644 Z M61.804,97.206 C59.95,97.206 59.032,98.772 58.96,100.104 L64.666,100.104 C64.648,98.808 63.784,97.206 61.804,97.206 Z M73.81,105 L75.376,105 L72.028,100.536 L75.178,96.306 L73.612,96.306 L71.2,99.618 L68.788,96.306 L67.222,96.306 L70.372,100.536 L67.042,105 L68.59,105 L71.2,101.436 L73.81,105 Z M79.12,105.216 C79.912,105.216 80.398,104.982 80.74,104.658 L80.344,103.65 C80.164,103.848 79.804,104.01 79.426,104.01 C78.832,104.01 78.544,103.542 78.544,102.894 L78.544,97.494 L80.308,97.494 L80.308,96.306 L78.544,96.306 L78.544,93.93 L77.194,93.93 L77.194,96.306 L75.754,96.306 L75.754,97.494 L77.194,97.494 L77.194,103.182 C77.194,104.478 77.842,105.216 79.12,105.216 Z" id="Body-Text" fill="#071D49"></path>
                        <path d="M1.416,3.064 L8.232,3.064 L8.232,23 L10.664,23 L10.664,3.064 L17.416,3.064 L17.416,0.856 L1.416,0.856 L1.416,3.064 Z M20.136,23 L22.536,23 L22.536,7 L20.136,7 L20.136,23 Z M20.136,3.384 L22.536,3.384 L22.536,0.6 L20.136,0.6 L20.136,3.384 Z M35.432,9.08 L35.432,7 L30.344,7 L30.344,2.104 L27.976,2.104 L27.976,7 L25.704,7 L25.704,9.08 L27.976,9.08 L27.976,17.496 C27.976,22.104 29.096,23.352 32.392,23.352 C33.512,23.352 35.656,23 35.656,23 L35.496,21.016 C35.496,21.016 33.544,21.208 32.648,21.208 C30.568,21.208 30.344,20.216 30.344,16.728 L30.344,9.08 L35.432,9.08 Z M38.568,23 L40.968,23 L40.968,0.024 L38.568,0.024 L38.568,23 Z M51.688,21.208 C54.088,21.208 57.576,20.92 57.576,20.92 L57.64,22.808 C57.64,22.808 53.992,23.32 51.4,23.32 C46.632,23.32 45.064,20.536 45.064,15.096 C45.064,9.016 47.688,6.68 51.752,6.68 C56.008,6.68 58.184,8.92 58.184,14.168 L58.056,15.992 L47.496,15.992 C47.496,19.416 48.552,21.208 51.688,21.208 Z M47.464,14.072 L55.784,14.072 C55.784,10.104 54.568,8.696 51.752,8.696 C49.032,8.696 47.496,10.2 47.464,14.072 Z" id="Title" fill="#071D49"></path>
                        <path d="M1,45 L30,45" id="Line" stroke="#C8102E" stroke-width="2" stroke-linecap="square"></path>
                        <rect id="Rectangle-8" fill="#43CEBD" opacity="0.05" x="0" y="24" width="134" height="20"></rect>
                        <path d="M144.864,38 L152.192,38 L152.192,36.816 L146.96,36.816 C149.936,34.464 152.144,32.48 152.144,30.304 C152.144,28.176 150.336,27.168 148.56,27.168 C147.056,27.168 145.664,27.776 144.848,28.848 L145.664,29.696 C146.288,28.896 147.28,28.352 148.56,28.352 C149.664,28.352 150.784,28.944 150.784,30.304 C150.784,32.144 148.704,33.92 144.864,36.944 L144.864,38 Z M154.224,32.672 C154.224,30.064 155.376,27.168 158.304,27.168 C161.216,27.168 162.384,30.064 162.384,32.672 C162.384,35.264 161.216,38.192 158.304,38.192 C155.376,38.192 154.224,35.264 154.224,32.672 Z M161.024,32.672 C161.024,30.544 160.336,28.352 158.304,28.352 C156.272,28.352 155.584,30.544 155.584,32.672 C155.584,34.8 156.272,37.008 158.304,37.008 C160.336,37.008 161.024,34.8 161.024,32.672 Z M165.6,40.944 L164.4,40.944 L164.4,30.272 L165.6,30.272 L165.6,31.424 C166.16,30.64 167.12,30.08 168.208,30.08 C170.24,30.08 171.648,31.616 171.648,34.128 C171.648,36.624 170.24,38.192 168.208,38.192 C167.152,38.192 166.224,37.696 165.6,36.832 L165.6,40.944 Z M170.384,34.128 C170.384,32.416 169.456,31.152 167.904,31.152 C166.96,31.152 166.016,31.712 165.6,32.384 L165.6,35.872 C166.016,36.544 166.96,37.12 167.904,37.12 C169.456,37.12 170.384,35.84 170.384,34.128 Z M178.592,38 L179.984,38 L177.008,34.032 L179.808,30.272 L178.416,30.272 L176.272,33.216 L174.128,30.272 L172.736,30.272 L175.536,34.032 L172.576,38 L173.952,38 L176.272,34.832 L178.592,38 Z" id="20px" fill="#43CEBD"></path>
                        <rect id="Rectangle-8-Copy" fill="#43CEBD" opacity="0.05" x="0" y="46" width="134" height="40"></rect>
                        <path d="M149.584,70 L149.584,67.296 L144.512,67.296 L144.512,66.192 L149.088,59.328 L150.912,59.328 L150.912,66.128 L152.416,66.128 L152.416,67.296 L150.912,67.296 L150.912,70 L149.584,70 Z M149.584,60.56 L145.84,66.128 L149.584,66.128 L149.584,60.56 Z M153.744,64.672 C153.744,62.064 154.896,59.168 157.824,59.168 C160.736,59.168 161.904,62.064 161.904,64.672 C161.904,67.264 160.736,70.192 157.824,70.192 C154.896,70.192 153.744,67.264 153.744,64.672 Z M160.544,64.672 C160.544,62.544 159.856,60.352 157.824,60.352 C155.792,60.352 155.104,62.544 155.104,64.672 C155.104,66.8 155.792,69.008 157.824,69.008 C159.856,69.008 160.544,66.8 160.544,64.672 Z M165.12,72.944 L163.92,72.944 L163.92,62.272 L165.12,62.272 L165.12,63.424 C165.68,62.64 166.64,62.08 167.728,62.08 C169.76,62.08 171.168,63.616 171.168,66.128 C171.168,68.624 169.76,70.192 167.728,70.192 C166.672,70.192 165.744,69.696 165.12,68.832 L165.12,72.944 Z M169.904,66.128 C169.904,64.416 168.976,63.152 167.424,63.152 C166.48,63.152 165.536,63.712 165.12,64.384 L165.12,67.872 C165.536,68.544 166.48,69.12 167.424,69.12 C168.976,69.12 169.904,67.84 169.904,66.128 Z M178.112,70 L179.504,70 L176.528,66.032 L179.328,62.272 L177.936,62.272 L175.792,65.216 L173.648,62.272 L172.256,62.272 L175.056,66.032 L172.096,70 L173.472,70 L175.792,66.832 L178.112,70 Z" id="40px" fill="#43CEBD"></path>
                    </g>
                </g>
            </g>
        </g>
    </g>
</svg>
